!!!OTL: IM WALDE MOECHT ICH LEBEN
!!!ARE: Europa, Mitteleuropa, Deutschland
!!!SCT: B0176A
!!!YEM: Copyright 1995, estate of Helmut Schaffrath.
**kern
*ICvox
*Ivox
*M4/4
*k[b-]
*F:
{4c
=1
4f
4g
4a
4b-
=2
4.cc
8dd
4cc}
{4a
=3
4b-
4a
4b-
4cc
=4
2a
4r}
{8a
8b-
=5
4cc
4cc
4cc
8b-
8cc
=6
4.dd
8ee
4ff}
{8ee
8dd
=7
4cc
4a
8cc
8b-
8a
8g
=8
2f
4r}
{4cc
=9
4cc
8a
8b-
4cc
8b-
8cc
=10
4.dd
8ee
4ff}
{8ee
8dd
=11
4cc
4ff
4gg
4ee
=12
2ff
4r}
==
!!!AGN: Natur - Lied, Wald
!!!ONB: ESAC (Essen Associative Code) Database: BOEHME
!!!AMT: simple quadruple
!!!AIN: vox
!!!EED: Helmut Schaffrath
!!!EEV: 1.0
*-
